engine-off.svg

<svg fill="currentColor" viewBox="0 0 24 24"><path d="M3.78 2.5 21.5 20.22l-1.27 1.28L18 19.27V20h-8l-2-2H5v-3H3v3H1v-8h2v3h2v-3l1.87-1.86L2.5 3.77zM20 9v3h-2V8h-6V6h3V4H7.82l15 15H23V9z"/></svg>

<svg  viewBox="0 0 24 24" fill="currentColor"><path  d="M3.78,2.5L21.5,20.22L20.23,21.5L18,19.27V20H10L8,18H5V15H3V18H1V10H3V13H5V10L6.87,8.14L2.5,3.77L3.78,2.5M20,9V12H18V8H12V6H15V4H7.82L22.82,19H23V9H20Z"/></svg>
